X:4919
L:1/8
M:2/2
K:A
 (3EFG [EA]2 |: AB | cecA cecA | ceag fecA | BcBA BcBA | Bcfg fecB | cecA cecB | AAce ecBA | 
 [EB]3 e agfe | cABG A2 :: !slide![AA]2- | [AA]cee agfb | gefg fecA | fgfe cBAF | B2 FB- B2 (3EFG | 
 Acee agfb | gefg fecA | fgfe cBAG | A2 ([GA-] [AA]2) :: A,2- | A,6 A,C | B,6 B,2 | EFGA Bcdf | 
 edce Ae c2 | A,6 A,C | B,6 B,2 | EFGA BcdB | cABA A2 :|

